app/ui/static/images/icons/solid/bolt-slash.svg

<svg width="20" height="20" viewBox="0 0 20 20" fill="none" xmlns="http://www.w3.org/2000/svg">
<path fill-rule="evenodd" clip-rule="evenodd" d="M2.21967 2.21967C2.51256 1.92678 2.98744 1.92678 3.28033 2.21967L17.7803 16.7197C18.0732 17.0126 18.0732 17.4874 17.7803 17.7803C17.4874 18.0732 17.0126 18.0732 16.7197 17.7803L2.21967 3.28033C1.92678 2.98744 1.92678 2.51256 2.21967 2.21967Z" fill="#0F172A"/>
<path d="M4.73016 7.91214L2.19108 10.7499C1.99385 10.9704 1.9446 11.2861 2.06533 11.5562C2.18607 11.8262 2.45423 12 2.75001 12H8.81805L4.73016 7.91214Z" fill="#0F172A"/>
<path d="M9.23329 12.4153L8.01666 18.0929C7.9454 18.4255 8.10685 18.7644 8.41002 18.9185C8.71318 19.0727 9.08215 19.0036 9.30894 18.7501L12.2647 15.4467L9.23329 12.4153Z" fill="#0F172A"/>
<path d="M15.2699 12.0879L17.8089 9.25013C18.0062 9.0297 18.0554 8.71393 17.9347 8.4439C17.814 8.17388 17.5458 8.00003 17.25 8.00003H11.182L15.2699 12.0879Z" fill="#0F172A"/>
<path d="M10.7667 7.58476L11.9834 1.90718C12.0546 1.57461 11.8932 1.23571 11.59 1.08152C11.2868 0.927338 10.9179 0.996463 10.6911 1.24994L7.73537 4.55339L10.7667 7.58476Z" fill="#0F172A"/>
</svg>

<svg xmlns="http://www.w3.org/2000/svg" viewBox="0 0 20 20" fill="currentColor" aria-hidden="true">
  <path fill-rule="evenodd" d="M2.22 2.22a.75.75 0 011.06 0l14.5 14.5a.75.75 0 11-1.06 1.06L2.22 3.28a.75.75 0 010-1.06z" clip-rule="evenodd"/>
  <path d="M4.73 7.912L2.191 10.75A.75.75 0 002.75 12h6.068L4.73 7.912zM9.233 12.415l-1.216 5.678a.75.75 0 001.292.657l2.956-3.303-3.032-3.032zM15.27 12.088l2.539-2.838A.75.75 0 0017.25 8h-6.068l4.088 4.088zM10.767 7.585l1.216-5.678a.75.75 0 00-1.292-.657L7.735 4.553l3.032 3.032z"/>
</svg>
